X:1
T:Title
%%score { ( 1 4 ) | ( 2 3 ) }
L:1/8
M:4/4
K:Eb
V:1 treble nm="Grand Piano"
V:4 treble 
V:2 bass 
V:3 bass 
V:1
 z4 z2[Q:1/4=100] [GB]2 |[M:3/4] [GB][EG] [GB]2 [Ge]2 | ec e2 .[EAd]2 | %3
 [EGB]3 [B,EG] [B,FA][B,DF] |[M:2/4] [B,EG]4 |[M:1/4] [EGc]2 |[M:3/4] [EGc][CEG] [EGc]2 c2 | %7
 dB e2 [EB]2 | [Bd]/c/[GB]/A/ [B,EG]2 .[B,DF]2 |[M:2/4] [G,E]4 |] %10
V:2
 z4 z2 [E,E]2 |[M:3/4] [E,E][E,B,] [E,E]2 [E,B,]2 | [A,CA][A,E] [A,CA]2[K:bass] z c | %3
 B,,3 B,, B,,B,, |[M:2/4] E,4 |[M:1/4] C,2 |[M:3/4] C,C, C,2[K:treble] [F,=A,F]2 | %7
 [B,F][K:bass][A,B,D] [G,B,E]2 G,,2 | z/ .AE/ B,,2 z A, |[M:2/4] E,4 |] %10
V:3
 x8 |[M:3/4] x6 | z2 z2[K:bass] A,,2 | x6 |[M:2/4] x4 |[M:1/4] x2 |[M:3/4] x4[K:treble] x2 | %7
 x[K:bass] x5 | A,,A,, z2 B,,2 |[M:2/4] x4 |] %10
V:4
 x8 |[M:3/4] x6 | x6 | x6 |[M:2/4] x4 |[M:1/4] x2 |[M:3/4] x6 | x6 | EC z2 z2 |[M:2/4] x4 |] %10

